X:1
T:Laudate pueri - Nanino
T:#
%%score { 1 | 2 } 3 4
L:1/8
Q:1/4=130
M:4/4
K:Eb
V:1 treble nm="Soprano I" snm="S"
V:2 treble 
V:3 treble nm="Alto" snm="A"
V:4 treble nm="Tenor" snm="T"
V:1
"^Laudate pueri""^Bernardino Nanino\n(1560-1623)""^Psalm 113 (Vulgate 112)" x24 | %1
w: |
[Q:1/4=170][Q:1/4=170][Q:1/4=170] z4 F4 (A2 B2 c2 d2 | e4) _d4 c8 | c4 (A2 B2 c2 d2 e4- | %4
w: Lau- da\- * * *|* te no-|men Do\- * * * *|
 e2 d2 c8) =B4 |[M:4/2] (c6 BA G8 | F8) z4 C4 | (E2 F2 G2 A2 B4) A4 | c4 (c6 d2 e2 c2) | %9
w: * * * mi-|ni, * * *|* lau-|da\- * * * * te,|lau- da\- * * *|
 d4 f4 (e6 d2 | c4) B4 G6 A2 | B2 A2 G2 F2 G6 G2 | !fermata!=A16 || %13
w: * te no\- *|* men Do\- *|* * * * * mi-|ni.|
[Q:1/4=130][Q:1/4=130][Q:1/4=130] x22 | x22 |[Q:1/4=170][Q:1/4=170][Q:1/4=170] c8 f2 f2 f4 | %16
w: ||A so- lis or-|
 e4 e6 d2 c2 B2 | (AB c4 =B2) c8 | A2 G2 A2 B2 (c3 B ABcA) |[M:4/2] B4 B4 e2 d2 c2 B2 | %20
w: tu us- que ad oc-|ca\- * * * sum,|us- que ad oc- ca\- * * * * *|* sum, us- que ad oc-|
 AGFG =ABcA =B2 c4 B2 | c8 z4 c4 | (e6 d2 c2 B2 B2 AG | A6) A2 G8 | z8 z4 c4 | (e6 d2 c2 B2 B2 AG | %26
w: ca\- * * * * * * * * * *|sum: lau-|da\- * * * * * *|* bi- le,|lau-|da\- * * * * * *|
 A6 B2 c4) A4 | G8 z4 F2 G2 | A2 B2 c2 d2 e4 c4 | (B2 A2 A2 GF G6) G2 | A8 z8 | z16 | z4 c4 e6 d2 | %33
w: * * * bi-|le no\- *|* * * * * men|Do\- * * * * * mi-|ni,||lau- da\- *|
 c2 B2 B2 AG A8- | A4 A4 G8 | z8 z4 F2 G2 | A2 B2 c2 d2 e8- | e4 e4 d6 d2 | e8 z4 c4- | %39
w: |* bi- le|no\- *||* men Do- mi-|ni, no\-|
 (c2 B2 A2 G2 F6 G2 | A4 G8 F2 E2 | F2 B,2 B8) A4 | G12 G4 | !fermata!=A16 || %44
w: ||* * * men|Do- mi-|ni.|
[Q:1/4=130][Q:1/4=130][Q:1/4=130] x26 | x22 |[Q:1/4=170][Q:1/4=170][Q:1/4=170] F8 c2 c2 c3 B | %47
w: ||Quis si- cut Do- mi-|
 A2 (FG ABcd e4) e4 | d8 c4 f4- | f2 e2 e4 c8- |[M:4/2] c4 (B6 A2 A2 GF | G4) G4 F4 c4- | %52
w: nus De\- * * * * * * us|no- ster, qui|* in al- tis|* ha\- * * * *|* bi- tat, qui|
 c2 c2 B8 F2 G2 | A2 B2 c8 G4 | (A8 B6) B2 | c8 F8 | E4 (A6 GF G2) G2 | A8 E8 | z4 A8 G4 | %59
w: * in al\- * *|* * * tis|ha\- * bi-|tat, et|hu- mi\- * * * li-|a, *|et hu-|
 F6 F2 G8- | G4 B6 B2 B2 B2 | (e6 dc f4) f4 | z4 e6 d2 c4- | (c4 =B4) (c2 d2 e2 c2 | d8) z4 c4- | %65
w: mi- li- a|* re- spi- cit in|coe\- * * * lo|et in ter\-|* * ra, * * *|* et|
 c4 B4 c8- | c4 B2 A2 G8 | !fermata!=A16 ||[Q:1/4=130][Q:1/4=130][Q:1/4=130] x20 | x24 | %70
w: * in ter\-||ra.|||
[Q:1/4=170][Q:1/4=170][Q:1/4=170] z8 z4 F4 | c6 cc d8 | e4 c8 =B4 | (c3 B A3 G A3 F G4- | %74
w: Ut|col- lo- cet e-|um cum prin-|ci\- * * * * * *|
 G4) F4 G4 e4- |[M:4/2] e4 d4 c6 c2 | d8 z8 | z4 c8 B4 | e8 d6 d2 | =e8 z4 c4- | c4 F4 G4 =A4 | %81
w: * pi- bus, cum|* prin- ci- pi-|bus,|cum prin-|ci\- * pi-|bus, cum|* prin- ci- pi-|
 B4 (f6 e2 d2 c2 | B4) c4 d4 e4- | e2 d2 d2 cB c8 | d4 B8 =A4 | (B8 c6) c2 | d8 (B6 AG | %87
w: bus po\- * * *|* pu- li su\-||i, cum prin-|ci\- * pi-|bus, cum * *|
 F4) F4 G4 B4 | G4 c8 B4 | E8 (F8 | G8) !fermata!=A16 ||[Q:1/4=130][Q:1/4=130][Q:1/4=130] x28 | %92
w: * prin- ci- pi-|bua po- pu-|li su\-|* i.||
 x20 |[M:3/1][Q:1/4=340][Q:1/4=340][Q:1/4=340] z16 z8 | c12 c4 d8 | (e12 d2 c2 B8 | c16 B4 A4 | %97
w: ||Glo- ri- a|Pa\- * * *||
 G4 A4 B4 c4 d4 e4 | f8) d8 c4 B4 | c4 d4 e12 d4 |[M:3/1] c8 B12 B4 ||[Q:1/4=170] c8 c8- | %102
w: |* tri, et *||* Fi- li-|o, et|
 c4 B4 A6 A2 | G4 (G2 A2 B2 AG F2 G2 | A2 B2 c8 =B4) | c8 z4 c4- | %106
w: * Spi- ri- tu-|i san\- * * * * * *||cto, et|
[M:4/2][Q:1/4=170][Q:1/4=170][Q:1/4=170] c4 e4 _d6 d2 | c8 z8 | E2 F2 G2 A2 B8 | A4 G2 F2 G8 | %110
w: * Spi- ri- tu-|i|san\- * * * *||
 !fermata!=A16 ||[Q:1/4=130][Q:1/4=130][Q:1/4=130] x32 | x24 | %113
w: cto.|||
V:2
[I:staff -1] A2 B2 c2 c2 _d2 c2 c2 B2 B2 B2 c4 |[I:staff +1] z16 | z8 z4 F4 | (A2 B2 c2 d2 e4) c4 | %4
w: Lau- da\- * te pu- e- ri Do- mi- num. *||Lau-|da\- * * * * te|
 B4 e4 d6 d2 |[M:4/2] e16 | z8 z4 c4 | (c2 d2 e2 c2 d2 e2 f4) | (e2 d2 c2 d2 e4) c4 | %9
w: no- men Do- mi-|ni,|lau-|da\- * * * * * *|te, * * * * lau-|
 (F2 G2 A2 B2 c6 d2 | e8) e8 | _d4 B4 c6 c2 | !fermata!c16 || %13
w: da\- * * * * *|* te|no- men Do- mi-|ni.|
[I:staff -1] A2 B2 c2 c2 _d2 c2 c2 B2 B2 c4 | c2 B2 A2 A2 B2 c2 c2 B2 A2 A4 |[I:staff +1] z16 | %16
w: Sit no- men Do- mi- ni be- ne- di- ctum:|ex hoc nunc et us- que in sae- cu- lum.||
 z8 c8 | f2 f2 f4 e4 e2 d2 | c2 B2 (A3 G F4) c4 |[M:4/2] z4 e2 d2 c2 B2 (c4- | c4 f6 e2 d4) | e16 | %22
w: A|so- lis or- tu us- que|ad oc- ca\- * * sum,|us- que ad oc- ca\-||sum:|
 z16 | z4 c4 (e6 d2) | (c2 B2 B2 AG A6) A2 | G8 z8 | z4 (F2 G2 A2 B2 c4- | c2 d2 e4) c8 | %28
w: |lau- da\- *|* * * * * * bi-|le|no\- * * * *|* * * men|
 (F2 G2 A2 F2 G2 E2 A4) | (G2 F2 F8) =E4 | F8 z4 c4 | (e6 d2 c2 B2 B2 AG | A4) A4 G8- | G8 z8 | %34
w: Do\- * * * * * *|* * * mi-|ni, lau-|da\- * * * * * *|* bi- le||
 z4 (C6 D2 E2 F2 | G2 A2 B2 G2 A6 B2 | c4) A4 G2 F2 G2 A2 | B2 G2 c8 =B4 | (c6 BA G8) | %39
w: no\- * * *||* men Do\- * * *|* * * mi-|ni, * * *|
 z4 F6 G2 A2 B2 | c2 d2 e8 d2 c2 | _d8 d8 | c12 c4 | !fermata!c16 || %44
w: no\- * * *||* men|Do- mi-|ni.|
[I:staff -1] A2 B2 c2 c2 _d2 c2 c2 c2 c2 c2 B2 c4 | c2 B2 A2 A2 B2 c2 c2 c2 B2 A4 | %46
w: Ex- cel- sus su- per o- mnes gen- tes Do- mi- nus:|et su- per cae- los glo- ri- a e- ius.|
[I:staff +1] z16 | z16 | z16 | z16 |[M:4/2] z8 F8 | c2 c2 c3 B A2 (FG ABcd | e4) e4 d8 | %53
w: ||||Quis|si- cut Do- mi- nus De\- * * * * *|* us no-|
 c4 f6 e2 e4- | e4 d4 e6 e2 | e8 z8 | z8 z4 _d4- | d4 c4 B4 B4 | (c6 BA B8) | z4 B6 B2 B2 E2 | %60
w: ster, qui in al\-|* tis ha- bi-|tat,|et|* hu- mi- li-|a * * *|re- spi- cit in|
 e12 e4 | z4 e8 d4 | (e6 d2 c2 B2 A4) | G8 z4 c4- | c4 =B4 (c6 _B2 | A2 F2 f8 e2 d2 | c16) | %67
w: coe- lo|et in|ter\- * * * *|ra, et|* in ter\- *|||
 !fermata!c16 ||[I:staff -1] A2 B2 c2 c2 _d2 c2 c2 B2 c4 | c2 B2 A2 A2 B2 c2 c2 c2 c2 B2 A4 | %70
w: ra.|Su- sci- tans a ter- ra i- no- pem,|et de ster- co- re e- ri- gens pau- pe- rem:|
[I:staff +1] F4 c6 cc d4 | e4 c8 =B4 | (c8 d6) d2 | c16 | z8 z2 G2 c4- |[M:4/2] c2 cc d4 e8 | %76
w: Ut col- lo- cet e-|um cum prin-|ci\- * pi-|bus,|ut col\-|* lo- cet e- um|
 z4 d8 B4 | (c6 d2 e4 d4- | d2 c2 c8) =B4 | c8 (=A6 G2) | =A4 B4 c6 c2 | d8 f6 e2 | d4 c4 B4 c4- | %83
w: cum prin-|ci\- * * *|* * * pi-|bus, cum *|* prin- ci- pi-|bus po\- *|* pu- li su\-|
 c2 B2 B8 =A4 | B8 z8 | z4 B8 =A4 | B6 c2 d2 B2 e4- | e4 d4 e8 | z4 e8 _d4 | c8 A6 B2 | %90
w: |i,|cum prin-|ci\- * * * *|* pi- bus|po- pu-|li su\- *|
 c8 !fermata!c16 ||[I:staff -1] A2 B2 c2 c2 _d2 c2 c2 c2 c2 c2 c2 B2 c4 | %92
w: * i.|Qui ha- bi- ta- re fa- cit ste- ri- lem in do- mo,|
 c2 B2 A2 A2 B2 c2 c2 B2 A4 |[M:3/1][I:staff +1] z16 z8 | z16 z8 | c12 c4 d8 | e16 d4 c4 | %97
w: ma- trem fi- li- o- rum lae- tan- tem.|||Glo- ri- a|Pa\- * *|
 B4 A4 G4 A4 B4 c4 | d4 e4 f8 e8- | e4 d4 c4 d4 e8 |[M:3/1] e8 e12 e4 || e8 z4 e4 | f4 e8 d4 | %103
w: |* * * tri,||et Fi- li-|o, et|Spi- ri- tu-|
 e4 B2 c2 d2 e2 f2 ed | c2 d2 e2 dc d8 | e8 (c6 B2) |[M:4/2] A4 G4 B6 B2 | E4 (A2 B2 c2 d2 e2 dc | %108
w: i san\- * * * * * *||cto, et *|* Spi- ri- tu-|i san\- * * * * * *|
 B6 c2 _d8- | d4 B4 c8) | !fermata!c16 ||[I:staff -1] A2 B2 c2 c2 _d2 c2 c2 c2 c4 c2 c2 c2 B2 c4 | %112
w: ||cto.|Si- cut e- rat in prin- ci- pi- o, et nunc, et sem- per,|
 c2 B2 A2 B2 c2 c2 c2 c2 c2 B2 A4 | %113
w: et in sae- cu- la sae- cu- lo- rum. A- men.|
V:3
[K:C] z24 |[K:Eb][K:treble] (F4 F6 G2 A2 F2 | G4) B4 (A6 G2 | F6 ED C4) C4 | E6 F2 G8 | %5
w: |Lau\- * * * *|* te no\- *|* * * * men|Do- mi- ni,|
[M:4/2] z4 G4 (E2 F2 G2 A2 | B4) A4 G8 | G4 G8 C4 | C4 F4 (E2 F2 G2 A2) | B4 (c6 B2 A4) | %10
w: lau- da\- * * *|* te no-|men Do- mi-|ni, lau- da\- * * *|* te * *|
 (G2 F2 G2 A2 B4) E4 | (G2 F2 F8) =E4 | !fermata!F16 || z22 | z22 | z8 F8 | c2 c2 c4 A4 A2 G2 | %17
w: no\- * * * * men|Do\- * * mi-|ni.|||A|so- lis or- tu us- que|
 F3 E D4 C8 | z4 c2 B2 A2 G2 (FG A2-) |[M:4/2] (A2 GF G4) A4 E2 E2 | (FGAB c2) C2 G8 | G16 | %22
w: ad oc- ca- sum,|us- que ad oc- ca\- * *|* * * * sum, us- que|ad * * * * oc- ca-|sum:|
 z4 C4 (E8 | F6) F2 C8 | z16 | z4 C4 E6 E2 | F8 z4 (C2 D2 | E2 F2 G2 E2 F2 G2 A2 B2 | %28
w: lau- da\-|* bi- le,||lau- da- bi-|le no\- *||
 c4) F4 (C6 D2) | E4 _D4 C4 C4 | c12 A4 | (A4 G2 F2 G8) | z8 z4 C4 | (E8 F8-) | F4 F4 E8 | z16 | %36
w: * men Do\- *|* mi- ni, lau-|da- bi-|le, * * *|lau-|da\- *|* bi- le||
 z4 (C6 D2 E2 F2 | G4) A4 F4 G4 | C16 | z16 | z4 (C2 D2 E2 F2 G2 A2 | B6 A2 G4) F4 | %42
w: no\- * * *|* men Do- mi-|ni,||no\- * * * * *|* * * men|
 (F4 =E2 D2 E4) E4 | !fermata!F16 || z26 | z22 | z8 C8 | F2 F2 F3 F E2 (CD EFGA | B4) B4 A8 | %49
w: Do\- * * * mi-|ni.|||Quis|si- cut Do- mi- nus De\- * * * * *|* us no-|
 G4 c6 A2 A4 |[M:4/2] G4 (G6 F2 F4- | F4) =E4 F2 A4 A2 | (G6 FE F4) B4 | (A6 GF G2 C2 c4-) | %54
w: ster, qui in al-|tis ha\- * *|* bi- tat, qui in|al\- * * * tis|ha\- * * * * *|
 (c2 B2 A8) G4 | A16 | z8 B8 | E4 (A6 GF G2) G2 | E16 | B,2 B,2 B,2 B,2 B8- | B4 G8 B4- | %61
w: * * * bi-|tat,|et|hu- mi\- * * * li-|a|re- spi- cit in coe\-|* lo et|
 B4 =A4 (B6 _A2 | G6 F2 E4 F2 E2) | D8 E8 | z4 G4 A8 | (F6 G2 A4 G4- | G2 F2 F8 =E4) | %67
w: * in ter\- *||* ra,|et in|ter\- * * *||
 !fermata!F16 || z20 | z24 | z16 | z16 | C4 F6 FF G4 | A4 F8 E4 | (A8 G6) G2 | %75
w: ra.|||||Ut col- lo- cet e-|um cum prin-|ci\- * pi-|
[M:4/2] E2 C2 G6 GG =A4 | B8 z4 G4- | G4 F4 G8- | G8 G8 | G8 F8- | F4 D4 E4 F4 | B,12 B4- | %82
w: bus, ut col- lo- cet e-|um cum|* prin- ci\-|* pi-|bus, cum|* prin- ci- pi-|bus po\-|
 B4 A4 G4 (E2 F2 | G8 F8) | B,8 z4 F4- | F4 D4 E4 F4 | B,8 z8 | z4 (B6 A2 G2 F2 | E8) F4 G4- | %89
w: * pu- li su\- *||i, cum|* prin- ci- pi-|bus|po\- * * *|* pu- li|
 G4 (A6 G2 F4- | F4 =E4) !fermata!F16 || z28 | z20 |[M:3/1] F12 F4 G8 | (A16 G4 F4 | E8) C8 G8 | %96
w: * su\- * *|* * i.|||Glo- ri- a|Pa\- * *|* tri, et|
 G16 F8 | G16 z8 | F12 F4 G8 | A16 G8 |[M:3/1] A8 A8 G8 || A8 A8- | A4 G4 F6 F2 | %103
w: Fi- li-|o,|glo- ri- a|Pa- tri,|et Fi- li-|o, et|* Spi- ri- tu-|
 E8 (B,2 C2 D2 E2 | F2 ED C2 B,A, G,8) | C8 z4 E4- |[M:4/2] E4 E4 F4 G4 | A12 (E2 F2 | %108
w: i san\- * * *||cto, et|* Spi- ri- tu-|i san\- *|
 G2 A2 B6 F2 G4- | G2 F2 F8 =E4) | !fermata!F16 || z32 | z24 | %113
w: ||cto.|||
V:4
[K:C] z24 |[K:Eb][K:treble-8] z16 | z16 | z16 | z16 |[M:4/2][K:treble-8] c4 (c6 d2 e2 c2 | %6
w: |||||Lau- da\- * * *|
 d4) f4 (e6 d2 | c6 BA G4) F4 | (A6 B2 c4) c4 | B4 F4 (A6 B2 | c2 d2 e8) c4 | B4 _d4 c6 c2 | %12
w: * te no\- *|* * * * men|Do\- * * mi-|ni, lau- da\- *|* * * te|no- men Do- mi-|
 !fermata!F16 || z22 | z22 | z16 | z16 | z8 z4 c4 | f4 f4 f8 |[M:4/2][K:treble-8] e8 z4 A2 G2 | %20
w: ni.|||||A|so- lis or-|tu us- que|
 F4 F4 G8 | c16- | c8 z8 | z8 z4 c4 | (e8 f6) f2 | (c6 B2 A4) G4 | F12 F4 | c8 z8 | z16 | z16 | %30
w: ad oc- ca-|sum:||lau-|da\- * bi-|le, * * lau-|da- bi-|le,|||
 z4 F4 (A6 B2 | c6 d2 e8 | f6) f2 c8 | z8 z4 F4- | (F2 G2 A2 B2 c6 d2 | e4) e4 (f8 | F6) F2 c8 | %37
w: lau- da\- *||* bi- le|no\-||* men Do\-|* mi- ni,|
 z16 | z4 (c2 d2 e2 f2 g2 e2) | (f6 e2 _d8) | c16 | (B16 | c12) c4 | !fermata!F16 || z26 | z22 | %46
w: |no\- * * * * *||men|Do\-|* mi-|ni.|||
 z16 | z16 | z8 F8 | c2 c2 c3 B A2 (FG ABcd) |[M:4/2][K:treble-8] e4 e4 _d8 | c8 f6 f2 | %52
w: ||Quis|si- cut Do- mi- nus De\- * * * * *|* us no-|ster, qui in|
 (e6 dc B2 c2 d2 e2 | f8) c8 | (f8 e6) e2 | A8 z4 _d4- | d4 c4 B6 B2 | A8 z8 | A8 E4 e4- | %59
w: al\- * * * * * *|* tis|ha\- * bi-|tat, et|* hu- mi- li-|a,|et hu- mi\-|
 (e2 dc d2) d2 e8 | E2 E2 E2 E2 (e6 d2 | c8) B8 | c12 F4 | G8 c8 | z8 f8- | f4 _d4 (c8 | %66
w: * * * * li- a|re- spi- cit in coe\- *|* lo|et in|ter- ra,|et|* in ter\-|
 A6 B2 c8) | !fermata!F16 || z20 | z24 | z16 | z16 | z16 | z8 F4 c4- | c2 cc d4 e4 c4- | %75
w: |ra.||||||Ut col\-|* lo- cet e- um cum|
[M:4/2][K:treble-8] c4 =B4 (c8 | G6 A2 B6 AG | A8 G6 F2 | E6 F2 G4) G4 | c8 z8 | z16 | z16 | z16 | %83
w: * prin- ci\-|||* * * pi-|bus,||||
 z8 z4 f4- | f4 d4 e4 f4 | B8 z8 | z4 B8 G4 | A4 B4 E4 (e4- | e2 d2 c2 B2 A4) B4 | (c8 _d8) | %90
w: cum|* prin- ci- pi-|bus,|cum prin-|ci- pi- bus po\-|* * * * * pu-|li *|
 c8 !fermata!F16 || z28 | z20 |[M:3/1][K:treble-8] z16 z8 | z16 z8 | z16 z8 | c12 c4 d8 | %97
w: su- i.||||||Glo- ri- a|
 (e16 d4 c4 | B8) B8 e8 | (A12 B4 c8-) |[M:3/1][K:treble-8] (c4 d4 e8) e8 || A16 | z16 | z16 | %104
w: Pa\- * *|* tri, et|Fi\- * *|* * * li-|o,|||
 z16 | z8 A8- |[M:4/2][K:treble-8] A4 c4 B6 B2 | A4 (F2 G2 A2 B2 c2 d2 | e8 B6 c2 | _d8 c8) | %110
w: |et|* Spi- ri- tu-|i san\- * * * * *|||
 !fermata!F16 || z32 | z24 | %113
w: cto.|||

